icons/nav-close.svg

<svg xmlns="http://www.w3.org/2000/svg" viewBox="0 0 93.7 70" enable-background="new 0 0 93.7 70"><style type="text/css">.st0{fill:none;}</style><path class="st0" d="M0 0h93.7v70h-93.7z"/><path d="M27.1 15.3h-13.1v-13.2h13.2v13.2zm0 39.4v13.2h-13.1v-13.2h13.1zm13.2-26.3h-13.2v-13.1h13.2v13.1zm0 13.2v13.2h-13.2v-13.2h13.2zm0-13.2h13.2v13.2h-13.2v-13.2zm13.2 0v-13.1h13.2v13.2h-13.2zm0 13.2h13.2v13.2h-13.2v-13.2zm13.1-26.3v-13.2h13.2v13.2h-13.2zm0 39.4h13.2v13.2h-13.2v-13.2z"/></svg>

<?xml version="1.0" encoding="utf-8"?>
<!-- Generator: Adobe Illustrator 19.1.0, SVG Export Plug-In . SVG Version: 6.00 Build 0)  -->
<svg version="1.1" id="Layer_1" xmlns="http://www.w3.org/2000/svg" xmlns:xlink="http://www.w3.org/1999/xlink" x="0px" y="0px"
	 viewBox="0 0 93.7 70" style="enable-background:new 0 0 93.7 70;" xml:space="preserve">
<style type="text/css">
	.st0{fill:none;}
</style>
<rect class="st0" width="93.7" height="70"/>
<g>
	<path d="M27.1,15.3H14V2.1h13.2V15.3z M27.1,54.7v13.2H14V54.7H27.1z M40.3,28.4H27.1V15.3h13.2V28.4z M40.3,41.6v13.2H27.1V41.6
		H40.3z M40.3,28.4h13.2v13.2H40.3V28.4z M53.5,28.4V15.3h13.2v13.2H53.5z M53.5,41.6h13.2v13.2H53.5V41.6z M66.6,15.3V2.1h13.2
		v13.2H66.6z M66.6,54.7h13.2v13.2H66.6V54.7z"/>
</g>
</svg>
